packages/design-system/src/icons/source/logo.svg

<svg viewBox="0 0 87 24" fill="none" xmlns="http://www.w3.org/2000/svg">
<path d="M8.56348 5.37988C12.1886 5.37988 15.1279 8.31321 15.1279 11.9316C15.1277 15.5498 12.1884 18.4824 8.56348 18.4824C7.53058 18.4824 6.5539 18.2437 5.68457 17.8193V24H2V12.0459H2.00293C2.00228 12.0079 2 11.9698 2 11.9316C2 8.31332 4.93854 5.38006 8.56348 5.37988ZM38.2139 6.82812H38.2832C38.5135 6.50629 38.798 6.22989 39.1357 6C39.4888 5.75486 39.8726 5.57083 40.2871 5.44824C40.7169 5.32568 41.1697 5.26468 41.6455 5.26465C42.7663 5.26465 43.7493 5.51769 44.5938 6.02344C45.4382 6.52918 46.0983 7.22637 46.5742 8.11523C47.0655 9.00405 47.3115 10.0459 47.3115 11.2412C47.3115 12.1606 47.1657 13.0114 46.874 13.793C46.5823 14.5744 46.16 15.2566 45.6074 15.8389C45.0701 16.4058 44.4098 16.8429 43.627 17.1494C42.8593 17.4559 41.9755 17.6094 40.9775 17.6094C39.7035 17.6093 38.5904 17.349 37.6387 16.8281C36.6867 16.3071 35.9498 15.5632 35.4277 14.5977C34.9058 13.6322 34.6446 12.506 34.6445 11.2188V0H38.2139V6.82812ZM55.2256 5.26465C56.5459 5.2647 57.6667 5.54012 58.5879 6.0918C59.5245 6.6282 60.2382 7.37208 60.7295 8.32227C61.2361 9.25708 61.6357 10.307 61.6357 11.4717V17.5811H57.9893V15.4482H57.8965C57.6815 15.862 57.4052 16.238 57.0674 16.5752C56.7297 16.8968 56.3152 17.1492 55.8242 17.333C55.3483 17.5169 54.7802 17.6093 54.1201 17.6094C53.0762 17.6094 52.1548 17.341 51.3564 16.8047C50.558 16.2683 49.9355 15.5478 49.4902 14.6436C49.0451 13.7241 48.8223 12.6893 48.8223 11.54C48.8223 10.3448 49.0835 9.27951 49.6055 8.34473C50.1275 7.39459 50.8645 6.6435 51.8164 6.0918C52.7837 5.54007 53.9205 5.26465 55.2256 5.26465ZM20.1035 17.5811H16.5107V5.54004H20.1035V17.5811ZM27.3721 5.26465C28.6004 5.26465 29.6451 5.50244 30.5049 5.97754C31.3799 6.45259 32.0482 7.08798 32.5088 7.88477C32.9694 8.68168 33.1992 9.57095 33.1992 10.5518V17.5811H29.6299V10.6436C29.6298 10.2299 29.5296 9.85464 29.3301 9.51758C29.1305 9.16509 28.8541 8.88869 28.501 8.68945C28.1633 8.47499 27.7794 8.36818 27.3496 8.36816C26.9045 8.36816 26.5054 8.47508 26.1523 8.68945C25.8146 8.88869 25.5453 9.16509 25.3457 9.51758C25.1462 9.85462 25.0469 10.2299 25.0469 10.6436V17.5811H21.4766V10.5518C21.4766 9.57095 21.7145 8.68168 22.1904 7.88477C22.6664 7.08793 23.3427 6.45259 24.2178 5.97754C25.1081 5.50257 26.1594 5.26471 27.3721 5.26465ZM72.0361 8.55176H69.541C68.9423 8.55179 68.4279 8.68188 67.998 8.94238C67.5682 9.18757 67.23 9.53219 66.9844 9.97656C66.7541 10.4057 66.6396 10.8965 66.6396 11.4482C66.6397 11.9998 66.8206 12.745 67.0508 13.1895C67.2964 13.6186 67.6345 13.9641 68.0645 14.2246C68.4943 14.4698 69.0087 14.5918 69.6074 14.5918H72.1025V17.5811H69.4697C68.2415 17.5811 67.1511 17.3279 66.1992 16.8223C65.2474 16.3013 64.4951 15.6038 63.9424 14.7305C63.3896 13.8416 63.0469 12.5823 63.0469 11.4482C63.0469 10.3141 63.3232 9.31009 63.876 8.43652C64.4287 7.54777 65.181 6.84231 66.1328 6.32129C67.0847 5.80034 68.1751 5.54004 69.4033 5.54004H72.0361V8.55176ZM77.0088 10.2305H78.5742L81.2695 5.77051H84.9854L82.0752 10.6895C82.9964 11.0726 83.7101 11.6631 84.2168 12.46C84.7388 13.2416 85 14.1613 85 15.2188V17.5635H81.4072V15.2188C81.4072 14.7897 81.2998 14.4065 81.085 14.0693C80.8854 13.7169 80.617 13.4404 80.2793 13.2412C79.9416 13.042 79.058 12.9424 78.6279 12.9424H77.0088V17.5635H73.4385V0H77.0088V10.2305ZM8.56348 9.21094C7.05849 9.21111 5.83887 10.4294 5.83887 11.9316C5.83913 13.4337 7.05865 14.6512 8.56348 14.6514C10.0684 14.6514 11.2888 13.4338 11.2891 11.9316C11.2891 10.4293 10.0686 9.21094 8.56348 9.21094ZM40.9775 8.39062C40.4251 8.3907 39.9417 8.529 39.5273 8.80469C39.1282 9.06519 38.8204 9.42509 38.6055 9.88477C38.3905 10.3445 38.2832 10.8659 38.2832 11.4482C38.2832 12.0304 38.3907 12.5592 38.6055 13.0342C38.8204 13.494 39.1281 13.8618 39.5273 14.1377C39.9418 14.3981 40.425 14.5292 40.9775 14.5293C41.5303 14.5293 42.007 14.3982 42.4062 14.1377C42.8053 13.8619 43.1123 13.4938 43.3271 13.0342C43.5573 12.5592 43.6729 12.0305 43.6729 11.4482C43.6728 10.8659 43.5574 10.3445 43.3271 9.88477C43.1122 9.42524 42.8052 9.06515 42.4062 8.80469C42.007 8.52882 41.5303 8.39062 40.9775 8.39062ZM55.1787 8.39062C54.6263 8.3907 54.1429 8.529 53.7285 8.80469C53.3141 9.06514 52.9991 9.4252 52.7842 9.88477C52.5692 10.3445 52.4619 10.8587 52.4619 11.4258C52.462 12.008 52.5693 12.5367 52.7842 13.0117C52.9991 13.4867 53.314 13.8619 53.7285 14.1377C54.1429 14.3981 54.6262 14.5292 55.1787 14.5293C55.7161 14.5293 56.1848 14.3982 56.584 14.1377C56.9985 13.8619 57.3134 13.4867 57.5283 13.0117C57.7432 12.5367 57.8505 12.008 57.8506 11.4258C57.8506 10.8587 57.7433 10.3445 57.5283 9.88477C57.3134 9.42515 56.9984 9.06516 56.584 8.80469C56.1848 8.52885 55.7161 8.39062 55.1787 8.39062ZM18.3066 0C18.8747 0 19.3667 0.214435 19.7812 0.643555C20.1958 1.05734 20.4033 1.54821 20.4033 2.11523C20.4032 2.68205 20.1956 3.17227 19.7812 3.58594C19.3667 3.99973 18.8747 4.20703 18.3066 4.20703C17.7387 4.20694 17.2475 3.99964 16.833 3.58594C16.4186 3.17225 16.211 2.68209 16.2109 2.11523C16.2109 1.54818 16.4185 1.05735 16.833 0.643555C17.2475 0.214561 17.7387 9.75438e-05 18.3066 0Z" fill="#54D19D"/>
</svg>

<svg xmlns="http://www.w3.org/2000/svg" fill="none" viewBox="0 0 87 24"><path fill="#54d19d" d="M8.563 5.38c3.626 0 6.565 2.933 6.565 6.552s-2.94 6.55-6.565 6.55a6.54 6.54 0 0 1-2.878-.663V24H2V12.046h.003L2 11.932C2 8.313 4.939 5.38 8.563 5.38m29.65 1.448h.07A3.4 3.4 0 0 1 39.136 6a4 4 0 0 1 1.151-.552q.645-.183 1.358-.183 1.681 0 2.949.758a5.3 5.3 0 0 1 1.98 2.092q.738 1.333.738 3.126 0 1.38-.438 2.552a6 6 0 0 1-1.267 2.046 5.4 5.4 0 0 1-1.98 1.31q-1.153.46-2.65.46-1.91 0-3.338-.78a5.43 5.43 0 0 1-2.211-2.231q-.783-1.448-.783-3.38V0h3.569zm17.013-1.563q1.98 0 3.362.827a5.36 5.36 0 0 1 2.142 2.23c.506.935.906 1.985.906 3.15v6.11h-3.647v-2.134h-.092q-.323.621-.83 1.127a3.6 3.6 0 0 1-1.243.758q-.714.276-1.704.276-1.566 0-2.764-.804a5.45 5.45 0 0 1-1.866-2.161q-.668-1.38-.668-3.104 0-1.793.783-3.195a5.8 5.8 0 0 1 2.211-2.253q1.452-.828 3.41-.827M20.104 17.58H16.51V5.54h3.593zm7.268-12.316q1.843 0 3.133.713 1.313.712 2.004 1.907.69 1.195.69 2.667v7.03h-3.57v-6.938q0-.621-.299-1.126a2.15 2.15 0 0 0-.829-.829 2.1 2.1 0 0 0-1.151-.32 2.26 2.26 0 0 0-2.004 1.149q-.3.505-.3 1.126v6.937h-3.57v-7.03q0-1.471.714-2.666.715-1.195 2.028-1.907 1.335-.713 3.154-.713m44.664 3.287h-2.495q-.898 0-1.543.39a2.63 2.63 0 0 0-1.014 1.035q-.344.644-.344 1.471c0 .552.18 1.297.41 1.742q.37.644 1.014 1.035.645.367 1.543.367h2.496v2.99H69.47q-1.843 0-3.27-.76a6.06 6.06 0 0 1-2.258-2.091c-.552-.89-.895-2.149-.895-3.283q0-1.701.829-3.011a6 6 0 0 1 2.257-2.116q1.428-.78 3.27-.781h2.633zm4.973 1.678h1.565l2.695-4.46h3.716l-2.91 4.92q1.382.575 2.142 1.77.783 1.172.783 2.759v2.345h-3.593v-2.345q0-.644-.322-1.15a2.2 2.2 0 0 0-.806-.828c-.337-.199-1.221-.299-1.651-.299h-1.62v4.622h-3.57V0h3.57zM8.563 9.21a2.723 2.723 0 0 0-2.724 2.722c0 1.502 1.22 2.72 2.724 2.72a2.723 2.723 0 0 0 2.726-2.72 2.723 2.723 0 0 0-2.726-2.721m32.414-.82q-.828 0-1.45.415-.599.39-.922 1.08-.322.69-.322 1.563t.322 1.586q.323.69.922 1.104.622.39 1.45.391.83 0 1.43-.391.597-.414.92-1.104.345-.713.346-1.586 0-.874-.346-1.563a2.54 2.54 0 0 0-.92-1.08q-.6-.414-1.43-.414m14.202 0q-.83 0-1.45.415-.623.39-.945 1.08t-.322 1.54q0 .874.322 1.587.323.712.944 1.126.622.39 1.45.391.807 0 1.406-.391.622-.414.944-1.126a3.8 3.8 0 0 0 .323-1.586q0-.852-.323-1.541-.323-.69-.944-1.08-.6-.414-1.405-.414M18.307 0q.852 0 1.474.644.622.62.622 1.471 0 .85-.622 1.47a2.02 2.02 0 0 1-1.474.622q-.852 0-1.474-.621a2 2 0 0 1-.622-1.47q0-.852.622-1.472.622-.645 1.474-.644"/></svg>
